X:35
T:Three Hornpipes #2
R:hornpipe
C:Traditional
D:"Chasing the bear" by Jon Hicks
Z:Transcribed by Lionel Gueganton
L:1/8
M:4/4
K:Bb
|: G2 BG AB cA     | Bc [dG]f gf dc   | B2 Bd cB AG | EF AF DE F/E/D 
|  G2 BG AB cA     | Bc [dG]f gf dc   | B2 Bd cB AG |1 D/E/F AF G2 D/E/F    :|2 D/E/F AF [GG]d d/=e/f
|: [g2g2] ga gf df | [g2g2] ga gf d=e | f2 fg af gf | dB cA B/A/G FA
|  G2 BG AB cA     | Bc [dG]f gf dc   | B2 Bd cB AG |1 D/E/F AF [GG]d d/e/f :|2 D/E/F AF [G4G4]

